dist/img/icons/events/run.svg

<svg width="43" height="52" viewBox="0 0 43 52" fill="none" xmlns="http://www.w3.org/2000/svg">
<g filter="url(#filter0_d_929_26458)">
<path fill-rule="evenodd" clip-rule="evenodd" d="M25.6004 8.35294C25.0974 8.35294 24.6983 8.76755 24.6983 9.26798C24.6983 9.76841 25.0974 10.183 25.6004 10.183C26.1035 10.183 26.5025 9.76841 26.5025 9.26798C26.5025 8.76755 26.1035 8.35294 25.6004 8.35294ZM22.4021 9.26798C22.4021 7.45819 23.8389 6 25.6004 6C27.362 6 28.7988 7.45819 28.7988 9.26798C28.7988 11.0778 27.362 12.536 25.6004 12.536C23.8389 12.536 22.4021 11.0778 22.4021 9.26798ZM23.326 16.4801C23.7013 16.4036 24.0891 16.5236 24.3603 16.8002L30.3192 22.8792L36.2132 24.8834C36.815 25.088 37.141 25.7538 36.9413 26.3705C36.7415 26.9872 36.0918 27.3212 35.4899 27.1166L29.3393 25.0251C29.1704 24.9676 29.0169 24.8708 28.8908 24.7422L24.3156 20.0748L22.748 29.6696L30.3878 35.5148C30.6781 35.7369 30.8491 36.0863 30.8491 36.4575V44.8235C30.8491 45.4733 30.335 46 29.7009 46C29.0668 46 28.5528 45.4733 28.5528 44.8235V37.0473L20.8131 31.1257C20.4686 30.8621 20.2966 30.4233 20.3676 29.9887L22.1433 19.1206L14.4472 20.6908V26C14.4472 26.6497 13.9331 27.1764 13.299 27.1764C12.6649 27.1764 12.1509 26.6497 12.1509 26V19.7255C12.1509 19.1643 12.5377 18.6812 13.0748 18.5716L23.326 16.4801ZM19.4525 34.3605C20.0191 34.6521 20.2478 35.3592 19.9632 35.9398L18.4255 39.0771C18.1936 39.5501 17.682 39.8063 17.1753 39.7029L6.92414 37.6114C6.30226 37.4845 5.8985 36.8651 6.02232 36.2278C6.14615 35.5906 6.75067 35.1769 7.37255 35.3037L16.766 37.2203L17.9112 34.8838C18.1958 34.3032 18.8858 34.0689 19.4525 34.3605Z" fill="#B923FF"/>
<path fill-rule="evenodd" clip-rule="evenodd" d="M25.6004 8.35294C25.0974 8.35294 24.6983 8.76755 24.6983 9.26798C24.6983 9.76841 25.0974 10.183 25.6004 10.183C26.1035 10.183 26.5025 9.76841 26.5025 9.26798C26.5025 8.76755 26.1035 8.35294 25.6004 8.35294ZM22.4021 9.26798C22.4021 7.45819 23.8389 6 25.6004 6C27.362 6 28.7988 7.45819 28.7988 9.26798C28.7988 11.0778 27.362 12.536 25.6004 12.536C23.8389 12.536 22.4021 11.0778 22.4021 9.26798ZM23.326 16.4801C23.7013 16.4036 24.0891 16.5236 24.3603 16.8002L30.3192 22.8792L36.2132 24.8834C36.815 25.088 37.141 25.7538 36.9413 26.3705C36.7415 26.9872 36.0918 27.3212 35.4899 27.1166L29.3393 25.0251C29.1704 24.9676 29.0169 24.8708 28.8908 24.7422L24.3156 20.0748L22.748 29.6696L30.3878 35.5148C30.6781 35.7369 30.8491 36.0863 30.8491 36.4575V44.8235C30.8491 45.4733 30.335 46 29.7009 46C29.0668 46 28.5528 45.4733 28.5528 44.8235V37.0473L20.8131 31.1257C20.4686 30.8621 20.2966 30.4233 20.3676 29.9887L22.1433 19.1206L14.4472 20.6908V26C14.4472 26.6497 13.9331 27.1764 13.299 27.1764C12.6649 27.1764 12.1509 26.6497 12.1509 26V19.7255C12.1509 19.1643 12.5377 18.6812 13.0748 18.5716L23.326 16.4801ZM19.4525 34.3605C20.0191 34.6521 20.2478 35.3592 19.9632 35.9398L18.4255 39.0771C18.1936 39.5501 17.682 39.8063 17.1753 39.7029L6.92414 37.6114C6.30226 37.4845 5.8985 36.8651 6.02232 36.2278C6.14615 35.5906 6.75067 35.1769 7.37255 35.3037L16.766 37.2203L17.9112 34.8838C18.1958 34.3032 18.8858 34.0689 19.4525 34.3605Z" stroke="#8808D7" stroke-width="0.5"/>
</g>
<defs>
<filter id="filter0_d_929_26458" x="0.75" y="0.75" width="41.4999" height="50.5" filterUnits="userSpaceOnUse" color-interpolation-filters="sRGB">
<feFlood flood-opacity="0" result="BackgroundImageFix"/>
<feColorMatrix in="SourceAlpha" type="matrix" values="0 0 0 0 0 0 0 0 0 0 0 0 0 0 0 0 0 0 127 0" result="hardAlpha"/>
<feOffset/>
<feGaussianBlur stdDeviation="2.5"/>
<feComposite in2="hardAlpha" operator="out"/>
<feColorMatrix type="matrix" values="0 0 0 0 1 0 0 0 0 0 0 0 0 0 0.84 0 0 0 1 0"/>
<feBlend mode="normal" in2="BackgroundImageFix" result="effect1_dropShadow_929_26458"/>
<feBlend mode="normal" in="SourceGraphic" in2="effect1_dropShadow_929_26458" result="shape"/>
</filter>
</defs>
</svg>

<svg width="43" height="52" fill="none" xmlns="http://www.w3.org/2000/svg"><g filter="url(#a)" clip-rule="evenodd"><path fill-rule="evenodd" d="M25.6 8.353a.909.909 0 0 0-.902.915c0 .5.4.915.902.915a.909.909 0 0 0 .902-.915c0-.5-.398-.915-.902-.915Zm-3.198.915C22.402 7.458 23.84 6 25.6 6 27.362 6 28.8 7.458 28.8 9.268c0 1.81-1.437 3.268-3.199 3.268-1.761 0-3.198-1.458-3.198-3.268Zm.924 7.212a1.13 1.13 0 0 1 1.034.32l5.96 6.08 5.893 2.003c.602.205.928.87.728 1.488-.2.616-.85.95-1.451.746l-6.15-2.092a1.145 1.145 0 0 1-.45-.283l-4.574-4.667-1.568 9.595 7.64 5.845c.29.222.461.571.461.943v8.366c0 .65-.514 1.176-1.148 1.176-.634 0-1.148-.527-1.148-1.176v-7.777l-7.74-5.921a1.19 1.19 0 0 1-.445-1.137l1.775-10.868-7.696 1.57V26c0 .65-.514 1.176-1.148 1.176-.634 0-1.148-.526-1.148-1.176v-6.274c0-.562.387-1.045.924-1.154l10.251-2.092Zm-3.873 17.88c.566.292.795 1 .51 1.58l-1.538 3.137a1.14 1.14 0 0 1-1.25.626L6.925 37.61c-.623-.127-1.026-.746-.903-1.383a1.15 1.15 0 0 1 1.35-.924l9.394 1.916 1.145-2.336c.285-.58.975-.815 1.541-.523Z" fill="#B923FF"/><path d="M25.6 8.353a.909.909 0 0 0-.902.915c0 .5.4.915.902.915a.909.909 0 0 0 .902-.915c0-.5-.398-.915-.902-.915Zm-3.198.915C22.402 7.458 23.84 6 25.6 6 27.362 6 28.8 7.458 28.8 9.268c0 1.81-1.437 3.268-3.199 3.268-1.761 0-3.198-1.458-3.198-3.268Zm.924 7.212a1.13 1.13 0 0 1 1.034.32l5.96 6.08 5.893 2.003c.602.205.928.87.728 1.488-.2.616-.85.95-1.451.746l-6.15-2.092a1.145 1.145 0 0 1-.45-.283l-4.574-4.667-1.568 9.595 7.64 5.845c.29.222.461.571.461.943v8.366c0 .65-.514 1.176-1.148 1.176-.634 0-1.148-.527-1.148-1.176v-7.777l-7.74-5.921a1.19 1.19 0 0 1-.445-1.137l1.775-10.868-7.696 1.57V26c0 .65-.514 1.176-1.148 1.176-.634 0-1.148-.526-1.148-1.176v-6.274c0-.562.387-1.045.924-1.154l10.251-2.092Zm-3.873 17.88c.566.292.795 1 .51 1.58l-1.538 3.137a1.14 1.14 0 0 1-1.25.626L6.925 37.61c-.623-.127-1.026-.746-.903-1.383a1.15 1.15 0 0 1 1.35-.924l9.394 1.916 1.145-2.336c.285-.58.975-.815 1.541-.523Z" stroke="#8808D7" stroke-width=".5"/></g><defs><filter id="a" x=".75" y=".75" width="41.5" height="50.5" filterUnits="userSpaceOnUse" color-interpolation-filters="sRGB"><feFlood flood-opacity="0" result="BackgroundImageFix"/><feColorMatrix in="SourceAlpha" values="0 0 0 0 0 0 0 0 0 0 0 0 0 0 0 0 0 0 127 0" result="hardAlpha"/><feOffset/><feGaussianBlur stdDeviation="2.5"/><feComposite in2="hardAlpha" operator="out"/><feColorMatrix values="0 0 0 0 1 0 0 0 0 0 0 0 0 0 0.84 0 0 0 1 0"/><feBlend in2="BackgroundImageFix" result="effect1_dropShadow_929_26458"/><feBlend in="SourceGraphic" in2="effect1_dropShadow_929_26458" result="shape"/></filter></defs></svg>
